X: 283
T: Mrs Johnston's Reel
C: by J Pringle
B: John Pringle "Collection of Reels Strathspeys & Jigs", 1801 p.28#3
Z: 2011 John Chambers <jc:trillian.mit.edu>
R: reel
M: C|
L: 1/8
K: Em
V: 1
B,| E3F GAB2 | AGFE DEFD | E3F GABc | BAGF GEE :|
B | efgf edB2 | cBAG FED2 | EFGA B^def | gebB e2e ||
f | gef^d eBGB | cABG FdDF | ~E>FGA B^def | gef^d e2e |]
V: 2 clef=bass middle=d
z | e2e2 e2e2 | d2d2 d2d2 | e2e2 e2e2 | B2B2 e2e :|
z | e2e2 e2g2 | d2d2 d2d2 | e2e2 e2e2 | B2B2 e2e ||
z | e2^d2 e2e2 | d2d2 d2d2 | e2e2 e2e2 | B2B2 e2e |]

%%sep 2 1 500

